img/tabs_shield.svg

<svg width="33" height="33" viewBox="0 0 33 33" fill="none" xmlns="http://www.w3.org/2000/svg">
<g clip-path="url(#clip0)">
<path d="M30.5177 8.95374L30.5167 8.92806C30.5024 8.61108 30.4928 8.27572 30.487 7.9026C30.4601 6.08306 29.0136 4.57798 27.1939 4.47627C23.3997 4.26453 20.4646 3.02734 17.9567 0.582909L17.9353 0.562516C17.1173 -0.187505 15.8834 -0.187505 15.0651 0.562516L15.0437 0.582909C12.5358 3.02734 9.60072 4.26453 5.80655 4.47652C3.98701 4.57799 2.54035 6.08306 2.51341 7.90285C2.50787 8.27346 2.49805 8.60881 2.4837 8.92806L2.48219 8.98773C2.40842 12.8567 2.31678 17.6718 3.9276 22.0422C4.81332 24.4456 6.15475 26.5348 7.91436 28.2521C9.91845 30.2079 12.5434 31.7605 15.7162 32.8668C15.8194 32.9028 15.9267 32.932 16.0359 32.9539C16.19 32.9846 16.3451 33 16.5002 33C16.6553 33 16.8106 32.9846 16.9645 32.9539C17.0737 32.932 17.1817 32.9025 17.2855 32.8663C20.4545 31.758 23.0767 30.2046 25.079 28.2491C26.8379 26.5313 28.1793 24.4416 29.0658 22.0377C30.6826 17.6541 30.5912 12.83 30.5177 8.95374ZM27.249 21.3677C25.5501 25.9741 22.0819 29.1376 16.6465 31.0384C16.6271 31.045 16.6065 31.0508 16.5851 31.0551C16.5289 31.0661 16.4718 31.0661 16.4149 31.0548C16.3937 31.0505 16.3731 31.045 16.3539 31.0384C10.9127 29.1411 7.4423 25.9794 5.74462 21.3728C4.25993 17.3442 4.34402 12.9241 4.4183 9.02474L4.4188 9.00308C4.43391 8.66798 4.44398 8.31701 4.44951 7.9313C4.4616 7.12337 5.10512 6.45493 5.91456 6.40986C8.06165 6.29002 9.94791 5.8751 11.6811 5.14144C13.412 4.4088 14.9493 3.37604 16.3804 1.98426C16.4531 1.92283 16.5475 1.92257 16.62 1.98426C18.0514 3.37604 19.5887 4.4088 21.3193 5.14144C23.0525 5.8751 24.9388 6.29002 27.0861 6.40986C27.8955 6.45493 28.5391 7.12337 28.5509 7.93155C28.5567 8.31928 28.5668 8.67024 28.5819 9.00308C28.6559 12.907 28.738 17.3306 27.249 21.3677Z" fill="url(#paint0_linear)"/>
<path d="M16.4999 8.27661C11.9651 8.27661 8.27588 11.966 8.27588 16.5007C8.27588 21.0356 11.9651 24.725 16.4999 24.725C21.0346 24.725 24.724 21.0356 24.724 16.5007C24.724 11.966 21.0346 8.27661 16.4999 8.27661ZM16.4999 22.7884C13.0328 22.7884 10.2122 19.9678 10.2122 16.5007C10.2122 13.0336 13.0328 10.213 16.4999 10.213C19.9668 10.213 22.7874 13.0336 22.7874 16.5007C22.7874 19.9678 19.9668 22.7884 16.4999 22.7884Z" fill="url(#paint1_linear)"/>
<path d="M18.8635 13.9474L15.0436 17.7672L14.0068 16.7304C13.6287 16.3523 13.0156 16.3523 12.6374 16.7304C12.2595 17.1086 12.2595 17.7217 12.6374 18.0996L14.359 19.8212C14.5481 20.0103 14.7959 20.1047 15.0436 20.1047C15.2913 20.1047 15.5391 20.0103 15.7282 19.8212L20.2328 15.3165C20.6107 14.9383 20.6107 14.3253 20.2328 13.9474C19.8547 13.569 19.2416 13.569 18.8635 13.9474Z" fill="url(#paint2_linear)"/>
</g>
<defs>
<linearGradient id="paint0_linear" x1="16.4998" y1="0" x2="16.4998" y2="33" gradientUnits="userSpaceOnUse">
<stop stop-color="#50CCF8"/>
<stop offset="1" stop-color="#19B4EA"/>
</linearGradient>
<linearGradient id="paint1_linear" x1="16.4999" y1="8.27661" x2="16.4999" y2="24.725" gradientUnits="userSpaceOnUse">
<stop stop-color="#50CCF8"/>
<stop offset="1" stop-color="#19B4EA"/>
</linearGradient>
<linearGradient id="paint2_linear" x1="16.4351" y1="13.6636" x2="16.4351" y2="20.1047" gradientUnits="userSpaceOnUse">
<stop stop-color="#50CCF8"/>
<stop offset="1" stop-color="#19B4EA"/>
</linearGradient>
<clipPath id="clip0">
<rect width="33" height="33" fill="white"/>
</clipPath>
</defs>
</svg>

<svg width="33" height="33" fill="none" xmlns="http://www.w3.org/2000/svg"><g clip-path="url(#clip0)"><path d="M30.518 8.954l-.001-.026a34.604 34.604 0 0 1-.03-1.025 3.497 3.497 0 0 0-3.293-3.427c-3.794-.211-6.73-1.449-9.237-3.893l-.022-.02a2.112 2.112 0 0 0-2.87 0l-.021.02C12.536 3.027 9.6 4.265 5.807 4.477a3.497 3.497 0 0 0-3.294 3.426c-.005.37-.015.706-.03 1.025v.06c-.075 3.869-.166 8.684 1.445 13.054.885 2.404 2.227 4.493 3.986 6.21 2.004 1.956 4.63 3.509 7.802 4.615A2.414 2.414 0 0 0 16.5 33a2.372 2.372 0 0 0 .785-.134c3.17-1.108 5.792-2.661 7.794-4.617 1.759-1.718 3.1-3.807 3.987-6.211 1.617-4.384 1.525-9.208 1.452-13.084zm-3.269 12.414c-1.699 4.606-5.167 7.77-10.602 9.67a.437.437 0 0 1-.293 0c-5.441-1.897-8.912-5.059-10.61-9.665-1.484-4.029-1.4-8.449-1.326-12.348v-.022c.016-.335.026-.686.032-1.072A1.554 1.554 0 0 1 5.915 6.41c2.147-.12 4.033-.535 5.766-1.269 1.731-.732 3.268-1.765 4.7-3.157a.179.179 0 0 1 .239 0c1.431 1.392 2.969 2.425 4.7 3.157 1.732.734 3.619 1.149 5.766 1.269.81.045 1.453.713 1.465 1.522.006.387.016.738.03 1.071.075 3.904.157 8.328-1.332 12.365z" fill="url(#paint0_linear)"/><path d="M16.5 8.277c-4.535 0-8.224 3.689-8.224 8.224s3.69 8.224 8.224 8.224c4.535 0 8.224-3.69 8.224-8.224 0-4.535-3.69-8.224-8.224-8.224zm0 14.511a6.295 6.295 0 0 1-6.288-6.287 6.295 6.295 0 0 1 6.288-6.288 6.295 6.295 0 0 1 6.287 6.288 6.295 6.295 0 0 1-6.287 6.287z" fill="url(#paint1_linear)"/><path d="M18.863 13.947l-3.82 3.82-1.036-1.037a.968.968 0 0 0-1.37 1.37l1.722 1.721a.965.965 0 0 0 1.37 0l4.504-4.505a.968.968 0 0 0-1.37-1.369z" fill="url(#paint2_linear)"/></g><defs><linearGradient id="paint0_linear" x1="16.5" y1="0" x2="16.5" y2="33" gradientUnits="userSpaceOnUse"><stop stop-color="#50CCF8"/><stop offset="1" stop-color="#19B4EA"/></linearGradient><linearGradient id="paint1_linear" x1="16.5" y1="8.277" x2="16.5" y2="24.725" gradientUnits="userSpaceOnUse"><stop stop-color="#50CCF8"/><stop offset="1" stop-color="#19B4EA"/></linearGradient><linearGradient id="paint2_linear" x1="16.435" y1="13.664" x2="16.435" y2="20.105" gradientUnits="userSpaceOnUse"><stop stop-color="#50CCF8"/><stop offset="1" stop-color="#19B4EA"/></linearGradient><clipPath id="clip0"><path fill="#fff" d="M0 0h33v33H0z"/></clipPath></defs></svg>
